cooper-animations/luts/day-one-v1.cube
TITLE "Day One - Traumauto Season 1"
LUT_3D_SIZE 9
DOMAIN_MIN 0.0 0.0 0.0
DOMAIN_MAX 1.0 1.0 1.0
0.009046 0.004384 0.000612
0.205059 0.009907 0.006135
0.382497 0.014906 0.011134
0.500721 0.018237 0.014465
0.580298 0.020479 0.016707
0.636322 0.022057 0.018285
0.677505 0.023218 0.019446
0.708900 0.024102 0.020330
0.733556 0.024797 0.021025
0.025504 0.189591 0.017070
0.221517 0.195114 0.022593
0.398955 0.200113 0.027592
0.517179 0.203444 0.030923
0.596756 0.205686 0.033165
0.652780 0.207264 0.034743
0.693963 0.208425 0.035903
0.725357 0.209309 0.036788
0.750013 0.210004 0.037482
0.042470 0.380515 0.034036
0.238483 0.386037 0.039558
0.415921 0.391036 0.044557
0.534145 0.394367 0.047888
0.613721 0.396609 0.050130
0.669745 0.398188 0.051709
0.710929 0.399348 0.052869
0.742323 0.400232 0.053753
0.766979 0.400927 0.054448
0.054217 0.512713 0.045783
0.250230 0.518236 0.051305
0.427668 0.523235 0.056305
0.545892 0.526566 0.059635
0.625469 0.528808 0.061877
0.681492 0.530386 0.063456
0.722676 0.531546 0.064616
0.754070 0.532431 0.065501
0.778726 0.533126 0.066195
0.062222 0.602794 0.053788
0.258234 0.608316 0.059310
0.435673 0.613316 0.064309
0.553897 0.616646 0.067640
0.633473 0.618888 0.069882
0.689497 0.620467 0.071461
0.730681 0.621627 0.072621
0.762075 0.622512 0.073505
0.786731 0.623206 0.074200
0.067874 0.666408 0.059440
0.263887 0.671931 0.064963
0.441325 0.676930 0.069962
0.559549 0.680261 0.073293
0.639126 0.682503 0.075535
0.695150 0.684081 0.077113
0.736333 0.685242 0.078274
0.767728 0.686126 0.079158
0.792384 0.686821 0.079853
0.072028 0.713149 0.063594
0.268041 0.718672 0.069116
0.445479 0.723671 0.074116
0.563703 0.727002 0.077446
0.643280 0.729244 0.079688
0.699303 0.730822 0.081267
0.740487 0.731983 0.082427
0.771881 0.732867 0.083312
0.796537 0.733562 0.084006
0.075188 0.748712 0.066754
0.271201 0.754234 0.072276
0.448639 0.759233 0.077276
0.566863 0.762564 0.080606
0.646440 0.764806 0.082848
0.702464 0.766385 0.084427
0.743647 0.767545 0.085587
0.775041 0.768429 0.086472
0.799697 0.769124 0.087166
0.077664 0.776571 0.069230
0.273676 0.782094 0.074752
0.451115 0.787093 0.079751
0.569339 0.790424 0.083082
0.648915 0.792666 0.085324
0.704939 0.794244 0.086903
0.746123 0.795405 0.088063
0.777517 0.796289 0.088947
0.802173 0.796984 0.089642
0.010124 0.005462 0.111120
0.206137 0.010984 0.116643
0.383575 0.015984 0.121642
0.501799 0.019314 0.124973
0.581376 0.021556 0.127215
0.637399 0.023135 0.128793
0.678583 0.024295 0.129954
0.709977 0.025180 0.130838
0.734633 0.025874 0.131533
0.026581 0.190669 0.127578
0.222594 0.196191 0.133101
0.400032 0.201190 0.138100
0.518256 0.204521 0.141431
0.597833 0.206763 0.143673
0.653857 0.208342 0.145251
0.695040 0.209502 0.146411
0.726435 0.210387 0.147296
0.751091 0.211081 0.147990
0.043547 0.381592 0.144544
0.239560 0.387115 0.150066
0.416998 0.392114 0.155065
0.535222 0.395445 0.158396
0.614799 0.397687 0.160638
0.670823 0.399265 0.162217
0.712006 0.400425 0.163377
0.743400 0.401310 0.164261
0.768056 0.402004 0.164956
0.055294 0.513791 0.156291
0.251307 0.519313 0.161813
0.428745 0.524312 0.166813
0.546969 0.527643 0.170143
0.626546 0.529885 0.172385
0.682570 0.531463 0.173964
0.723753 0.532624 0.175124
0.755148 0.533508 0.176009
0.779804 0.534203 0.176703
0.063299 0.603871 0.164296
0.259312 0.609394 0.169818
0.436750 0.614393 0.174817
0.554974 0.617724 0.178148
0.634551 0.619966 0.180390
0.690575 0.621544 0.181969
0.731758 0.622705 0.183129
0.763152 0.623589 0.184013
0.787808 0.624284 0.184708
0.068952 0.667486 0.169948
0.264965 0.673008 0.175471
0.442403 0.678007 0.180470
0.560627 0.681338 0.183801
0.640204 0.683580 0.186043
0.696227 0.685159 0.187621
0.737411 0.686319 0.188782
0.768805 0.687203 0.189666
0.793461 0.687898 0.190361
0.073105 0.714227 0.174102
0.269118 0.719749 0.179624
0.446556 0.724748 0.184624
0.564780 0.728079 0.187954
0.644357 0.730321 0.190196
0.700381 0.731900 0.191775
0.741564 0.733060 0.192935
0.772959 0.733944 0.193820
0.797615 0.734639 0.194514
0.076265 0.749789 0.177262
0.272278 0.755312 0.182784
0.449716 0.760311 0.187784
0.567940 0.763642 0.191115
0.647517 0.765884 0.193357
0.703541 0.767462 0.194935
0.744724 0.768622 0.196095
0.776119 0.769507 0.196980
0.800775 0.770201 0.197674
0.078741 0.777649 0.179738
0.274754 0.783171 0.185260
0.452192 0.788170 0.190259
0.570416 0.791501 0.193590
0.649993 0.793743 0.195832
0.706017 0.795322 0.197411
0.747200 0.796482 0.198571
0.778594 0.797367 0.199455
0.803250 0.798061 0.200150
0.011867 0.007205 0.289882
0.207879 0.012727 0.295404
0.385318 0.017726 0.300403
0.503542 0.021057 0.303734
0.583118 0.023299 0.305976
0.639142 0.024878 0.307555
0.680326 0.026038 0.308715
0.711720 0.026922 0.309600
0.736376 0.027617 0.310294
0.028324 0.192412 0.306339
0.224337 0.197934 0.311862
0.401775 0.202933 0.316861
0.519999 0.206264 0.320192
0.599576 0.208506 0.322434
0.655600 0.210085 0.324012
0.696783 0.211245 0.325173
0.728178 0.212129 0.326057
0.752834 0.212824 0.326752
0.045290 0.383335 0.323305
0.241303 0.388857 0.328828
0.418741 0.393857 0.333827
0.536965 0.397187 0.337158
0.616542 0.399429 0.339400
0.672565 0.401008 0.340978
0.713749 0.402168 0.342138
0.745143 0.403053 0.343023
0.769799 0.403747 0.343718
0.057037 0.515533 0.335052
0.253050 0.521056 0.340575
0.430488 0.526055 0.345574
0.548712 0.529386 0.348905
0.628289 0.531628 0.351147
0.684313 0.533206 0.352725
0.725496 0.534367 0.353886
0.756891 0.535251 0.354770
0.781547 0.535946 0.355465
0.065042 0.605614 0.343057
0.261055 0.611137 0.348580
0.438493 0.616136 0.353579
0.556717 0.619467 0.356910
0.636294 0.621709 0.359152
0.692317 0.623287 0.360730
0.733501 0.624447 0.361890
0.764895 0.625332 0.362775
0.789551 0.626027 0.363469
0.070695 0.669229 0.348710
0.266708 0.674751 0.354232
0.444146 0.679750 0.359232
0.562370 0.683081 0.362562
0.641946 0.685323 0.364804
0.697970 0.686901 0.366383
0.739154 0.688062 0.367543
0.770548 0.688946 0.368428
0.795204 0.689641 0.369122
0.074848 0.715970 0.352863
0.270861 0.721492 0.358386
0.448299 0.726491 0.363385
0.566523 0.729822 0.366716
0.646100 0.732064 0.368958
0.702124 0.733643 0.370536
0.743307 0.734803 0.371697
0.774701 0.735687 0.372581
0.799358 0.736382 0.373276
0.078008 0.751532 0.356023
0.274021 0.757054 0.361546
0.451459 0.762054 0.366545
0.569683 0.765384 0.369876
0.649260 0.767626 0.372118
0.705284 0.769205 0.373696
0.746467 0.770365 0.374857
0.777862 0.771250 0.375741
0.802518 0.771944 0.376436
0.080484 0.779392 0.358499
0.276497 0.784914 0.364022
0.453935 0.789913 0.369021
0.572159 0.793244 0.372352
0.651736 0.795486 0.374594
0.707759 0.797065 0.376172
0.748943 0.798225 0.377332
0.780337 0.799109 0.378217
0.804993 0.799804 0.378911
0.013198 0.008536 0.426477
0.209211 0.014059 0.431999
0.386649 0.019058 0.436998
0.504873 0.022389 0.440329
0.584450 0.024631 0.442571
0.640474 0.026209 0.444150
0.681657 0.027370 0.445310
0.713052 0.028254 0.446194
0.737708 0.028949 0.446889
0.029656 0.193743 0.442934
0.225669 0.199266 0.448457
0.403107 0.204265 0.453456
0.521331 0.207596 0.456787
0.600908 0.209838 0.459029
0.656932 0.211416 0.460607
0.698115 0.212577 0.461767
0.729509 0.213461 0.462652
0.754165 0.214156 0.463347
0.046622 0.384667 0.459900
0.242634 0.390189 0.465422
0.420073 0.395188 0.470422
0.538297 0.398519 0.473752
0.617873 0.400761 0.475994
0.673897 0.402340 0.477573
0.715081 0.403500 0.478733
0.746475 0.404384 0.479618
0.771131 0.405079 0.480312
0.058369 0.516865 0.471647
0.254382 0.522388 0.477170
0.431820 0.527387 0.482169
0.550044 0.530718 0.485500
0.629621 0.532960 0.487742
0.685644 0.534538 0.489320
0.726828 0.535698 0.490480
0.758222 0.536583 0.491365
0.782878 0.537278 0.492060
0.066374 0.606946 0.479652
0.262386 0.612468 0.485174
0.439825 0.617467 0.490173
0.558049 0.620798 0.493504
0.637625 0.623040 0.495746
0.693649 0.624619 0.497325
0.734833 0.625779 0.498485
0.766227 0.626664 0.499370
0.790883 0.627358 0.500064
0.072026 0.670560 0.485305
0.268039 0.676083 0.490827
0.445477 0.681082 0.495826
0.563701 0.684413 0.499157
0.643278 0.686655 0.501399
0.699302 0.688233 0.502978
0.740485 0.689394 0.504138
0.771880 0.690278 0.505022
0.796536 0.690973 0.505717
0.076180 0.717301 0.489458
0.272193 0.722824 0.494981
0.449631 0.727823 0.499980
0.567855 0.731154 0.503311
0.647432 0.733396 0.505553
0.703455 0.734974 0.507131
0.744639 0.736135 0.508291
0.776033 0.737019 0.509176
0.800689 0.737714 0.509870
0.079340 0.752864 0.492618
0.275353 0.758386 0.498141
0.452791 0.763385 0.503140
0.571015 0.766716 0.506471
0.650592 0.768958 0.508713
0.706615 0.770537 0.510291
0.747799 0.771697 0.511451
0.779193 0.772581 0.512336
0.803849 0.773276 0.513031
0.081816 0.780723 0.495094
0.277828 0.786246 0.500616
0.455267 0.791245 0.505615
0.573491 0.794576 0.508946
0.653067 0.796818 0.511188
0.709091 0.798396 0.512767
0.750275 0.799557 0.513927
0.781669 0.800441 0.514812
0.806325 0.801136 0.515506
0.014128 0.009466 0.521843
0.210141 0.014989 0.527366
0.387579 0.019988 0.532365
0.505803 0.023319 0.535696
0.585380 0.025561 0.537938
0.641404 0.027139 0.539516
0.682587 0.028299 0.540677
0.713982 0.029184 0.541561
0.738638 0.029879 0.542256
0.030586 0.194673 0.538301
0.226599 0.200196 0.543824
0.404037 0.205195 0.548823
0.522261 0.208526 0.552154
0.601838 0.210768 0.554396
0.657861 0.212346 0.555974
0.699045 0.213506 0.557134
0.730439 0.214391 0.558019
0.755095 0.215085 0.558714
0.047551 0.385596 0.555267
0.243564 0.391119 0.560789
0.421002 0.396118 0.565788
0.539226 0.399449 0.569119
0.618803 0.401691 0.571361
0.674827 0.403269 0.572940
0.716010 0.404430 0.574100
0.747405 0.405314 0.574984
0.772061 0.406009 0.575679
0.059299 0.517795 0.567014
0.255312 0.523317 0.572537
0.432750 0.528317 0.577536
0.550974 0.531647 0.580867
0.630550 0.533889 0.583109
0.686574 0.535468 0.584687
0.727758 0.536628 0.585847
0.759152 0.537513 0.586732
0.783808 0.538207 0.587426
0.067303 0.607876 0.575019
0.263316 0.613398 0.580541
0.440754 0.618397 0.585540
0.558978 0.621728 0.588871
0.638555 0.623970 0.591113
0.694579 0.625549 0.592692
0.735762 0.626709 0.593852
0.767157 0.627593 0.594736
0.791813 0.628288 0.595431
0.072956 0.671490 0.580672
0.268969 0.677013 0.586194
0.446407 0.682012 0.591193
0.564631 0.685343 0.594524
0.644208 0.687585 0.596766
0.700232 0.689163 0.598344
0.741415 0.690323 0.599505
0.772810 0.691208 0.600389
0.797466 0.691902 0.601084
0.077110 0.718231 0.584825
0.273122 0.723754 0.590347
0.450561 0.728753 0.595347
0.568785 0.732084 0.598677
0.648361 0.734326 0.600919
0.704385 0.735904 0.602498
0.745569 0.737064 0.603658
0.776963 0.737949 0.604543
0.801619 0.738643 0.605237
0.080270 0.753793 0.587985
0.276283 0.759316 0.593508
0.453721 0.764315 0.598507
0.571945 0.767646 0.601838
0.651522 0.769888 0.604080
0.707545 0.771466 0.605658
0.748729 0.772627 0.606818
0.780123 0.773511 0.607703
0.804779 0.774206 0.608397
0.082745 0.781653 0.590461
0.278758 0.787176 0.595983
0.456196 0.792175 0.600982
0.574420 0.795506 0.604313
0.653997 0.797748 0.606555
0.710021 0.799326 0.608134
0.751204 0.800486 0.609294
0.782599 0.801371 0.610178
0.807255 0.802066 0.610873
0.014786 0.010124 0.589317
0.210799 0.015647 0.594840
0.388237 0.020646 0.599839
0.506461 0.023977 0.603170
0.586038 0.026219 0.605412
0.642061 0.027797 0.606990
0.683245 0.028957 0.608151
0.714639 0.029842 0.609035
0.739295 0.030536 0.609730
0.031244 0.195331 0.605775
0.227256 0.200853 0.611297
0.404695 0.205853 0.616297
0.522919 0.209183 0.619627
0.602495 0.211425 0.621869
0.658519 0.213004 0.623448
0.699703 0.214164 0.624608
0.731097 0.215049 0.625493
0.755753 0.215743 0.626187
0.048209 0.386254 0.622741
0.244222 0.391777 0.628263
0.421660 0.396776 0.633262
0.539884 0.400107 0.636593
0.619461 0.402349 0.638835
0.675485 0.403927 0.640413
0.716668 0.405087 0.641574
0.748063 0.405972 0.642458
0.772719 0.406667 0.643153
0.059956 0.518453 0.634488
0.255969 0.523975 0.640010
0.433408 0.528974 0.645009
0.551631 0.532305 0.648340
0.631208 0.534547 0.650582
0.687232 0.536126 0.652161
0.728416 0.537286 0.653321
0.759810 0.538170 0.654206
0.784466 0.538865 0.654900
0.067961 0.608533 0.642492
0.263974 0.614056 0.648015
0.441412 0.619055 0.653014
0.559636 0.622386 0.656345
0.639213 0.624628 0.658587
0.695237 0.626206 0.660165
0.736420 0.627367 0.661326
0.767815 0.628251 0.662210
0.792471 0.628946 0.662905
0.073614 0.672148 0.648145
0.269627 0.677670 0.653668
0.447065 0.682670 0.658667
0.565289 0.686000 0.661998
0.644866 0.688242 0.664240
0.700890 0.689821 0.665818
0.742073 0.690981 0.666979
0.773467 0.691866 0.667863
0.798123 0.692560 0.668558
0.077767 0.718889 0.652299
0.273780 0.724411 0.657821
0.451218 0.729411 0.662820
0.569442 0.732741 0.666151
0.649019 0.734983 0.668393
0.705043 0.736562 0.669972
0.746226 0.737722 0.671132
0.777621 0.738607 0.672017
0.802277 0.739301 0.672711
0.080928 0.754451 0.655459
0.276940 0.759974 0.660981
0.454379 0.764973 0.665981
0.572603 0.768304 0.669311
0.652179 0.770546 0.671553
0.708203 0.772124 0.673132
0.749387 0.773284 0.674292
0.780781 0.774169 0.675177
0.805437 0.774864 0.675871
0.083403 0.782311 0.657935
0.279416 0.787833 0.663457
0.456854 0.792833 0.668456
0.575078 0.796163 0.671787
0.654655 0.798405 0.674029
0.710679 0.799984 0.675607
0.751862 0.801144 0.676768
0.783257 0.802029 0.677652
0.807913 0.802723 0.678347
0.015267 0.010605 0.638621
0.211280 0.016127 0.644144
0.388718 0.021126 0.649143
0.506942 0.024457 0.652474
0.586518 0.026699 0.654716
0.642542 0.028278 0.656294
0.683726 0.029438 0.657454
0.715120 0.030322 0.658339
0.739776 0.031017 0.659034
0.031724 0.195812 0.655079
0.227737 0.201334 0.660601
0.405175 0.206333 0.665600
0.523399 0.209664 0.668931
0.602976 0.211906 0.671173
0.659000 0.213485 0.672752
0.700183 0.214645 0.673912
0.731578 0.215529 0.674797
0.756234 0.216224 0.675491
0.048690 0.386735 0.672044
0.244703 0.392257 0.677567
0.422141 0.397257 0.682566
0.540365 0.400587 0.685897
0.619942 0.402829 0.688139
0.675965 0.404408 0.689717
0.717149 0.405568 0.690878
0.748543 0.406453 0.691762
0.773199 0.407147 0.692457
0.060437 0.518933 0.683792
0.256450 0.524456 0.689314
0.433888 0.529455 0.694313
0.552112 0.532786 0.697644
0.631689 0.535028 0.699886
0.687713 0.536606 0.701465
0.728896 0.537767 0.702625
0.760291 0.538651 0.703509
0.784947 0.539346 0.704204
0.068442 0.609014 0.691796
0.264455 0.614537 0.697319
0.441893 0.619536 0.702318
0.560117 0.622867 0.705649
0.639694 0.625109 0.707891
0.695717 0.626687 0.709469
0.736901 0.627847 0.710630
0.768295 0.628732 0.711514
0.792951 0.629427 0.712209
0.074095 0.672629 0.697449
0.270108 0.678151 0.702972
0.447546 0.683150 0.707971
0.565770 0.686481 0.711302
0.645346 0.688723 0.713544
0.701370 0.690302 0.715122
0.742554 0.691462 0.716282
0.773948 0.692346 0.717167
0.798604 0.693041 0.717862
0.078248 0.719370 0.701603
0.274261 0.724892 0.707125
0.451699 0.729891 0.712124
0.569923 0.733222 0.715455
0.649500 0.735464 0.717697
0.705524 0.737043 0.719276
0.746707 0.738203 0.720436
0.778102 0.739087 0.721320
0.802758 0.739782 0.722015
0.081408 0.754932 0.704763
0.277421 0.760454 0.710285
0.454859 0.765454 0.715284
0.573083 0.768784 0.718615
0.652660 0.771026 0.720857
0.708684 0.772605 0.722436
0.749867 0.773765 0.723596
0.781262 0.774650 0.724481
0.805918 0.775344 0.725175
0.083884 0.782792 0.707238
0.279897 0.788314 0.712761
0.457335 0.793313 0.717760
0.575559 0.796644 0.721091
0.655136 0.798886 0.723333
0.711159 0.800465 0.724911
0.752343 0.801625 0.726072
0.783737 0.802509 0.726956
0.808393 0.803204 0.727651
0.015629 0.010968 0.675840
0.211642 0.016490 0.681363
0.389081 0.021489 0.686362
0.507304 0.024820 0.689693
0.586881 0.027062 0.691935
0.642905 0.028641 0.693513
0.684089 0.029801 0.694674
0.715483 0.030685 0.695558
0.740139 0.031380 0.696253
0.032087 0.196174 0.692298
0.228100 0.201697 0.697821
0.405538 0.206696 0.702820
0.523762 0.210027 0.706151
0.603339 0.212269 0.708393
0.659363 0.213847 0.709971
0.700546 0.215008 0.711131
0.731941 0.215892 0.712016
0.756597 0.216587 0.712711
0.049053 0.387098 0.709264
0.245066 0.392620 0.714786
0.422504 0.397619 0.719785
0.540728 0.400950 0.723116
0.620305 0.403192 0.725358
0.676328 0.404771 0.726937
0.717512 0.405931 0.728097
0.748906 0.406816 0.728981
0.773562 0.407510 0.729676
0.060800 0.519296 0.721011
0.256813 0.524819 0.726533
0.434251 0.529818 0.731533
0.552475 0.533149 0.734864
0.632052 0.535391 0.737106
0.688076 0.536969 0.738684
0.729259 0.538130 0.739844
0.760653 0.539014 0.740729
0.785309 0.539709 0.741423
0.068805 0.609377 0.729016
0.264818 0.614899 0.734538
0.442256 0.619899 0.739537
0.560480 0.623229 0.742868
0.640057 0.625472 0.745110
0.696080 0.627050 0.746689
0.737264 0.628210 0.747849
0.768658 0.629095 0.748733
0.793314 0.629789 0.749428
0.074458 0.672991 0.734668
0.270470 0.678514 0.740191
0.447909 0.683513 0.745190
0.566133 0.686844 0.748521
0.645709 0.689086 0.750763
0.701733 0.690664 0.752341
0.742917 0.691825 0.753502
0.774311 0.692709 0.754386
0.798967 0.693404 0.755081
0.078611 0.719732 0.738822
0.274624 0.725255 0.744344
0.452062 0.730254 0.749344
0.570286 0.733585 0.752674
0.649863 0.735827 0.754916
0.705887 0.737405 0.756495
0.747070 0.738566 0.757655
0.778464 0.739450 0.758540
0.803120 0.740145 0.759234
0.081771 0.755295 0.741982
0.277784 0.760817 0.747505
0.455222 0.765816 0.752504
0.573446 0.769147 0.755835
0.653023 0.771389 0.758077
0.709047 0.772968 0.759655
0.750230 0.774128 0.760815
0.781624 0.775013 0.761700
0.806281 0.775707 0.762394
0.084247 0.783155 0.744458
0.280260 0.788677 0.749980
0.457698 0.793676 0.754979
0.575922 0.797007 0.758310
0.655499 0.799249 0.760552
0.711522 0.800827 0.762131
0.752706 0.801988 0.763291
0.784100 0.802872 0.764175
0.808756 0.803567 0.764870
0.015911 0.011249 0.704757
0.211924 0.016772 0.710280
0.389362 0.021771 0.715279
0.507586 0.025102 0.718610
0.587163 0.027344 0.720852
0.643187 0.028922 0.722430
0.684370 0.030083 0.723590
0.715765 0.030967 0.724475
0.740421 0.031662 0.725170
0.032369 0.196456 0.721215
0.228382 0.201979 0.726737
0.405820 0.206978 0.731736
0.524044 0.210309 0.735067
0.603621 0.212551 0.737309
0.659645 0.214129 0.738888
0.700828 0.215290 0.740048
0.732222 0.216174 0.740933
0.756878 0.216869 0.741627
0.049335 0.387380 0.738180
0.245348 0.392902 0.743703
0.422786 0.397901 0.748702
0.541010 0.401232 0.752033
0.620586 0.403474 0.754275
0.676610 0.405053 0.755853
0.717794 0.406213 0.757014
0.749188 0.407097 0.757898
0.773844 0.407792 0.758593
0.061082 0.519578 0.749928
0.257095 0.525101 0.755450
0.434533 0.530100 0.760449
0.552757 0.533431 0.763780
0.632334 0.535673 0.766022
0.688358 0.537251 0.767601
0.729541 0.538411 0.768761
0.760935 0.539296 0.769645
0.785591 0.539991 0.770340
0.069087 0.609659 0.757932
0.265099 0.615181 0.763455
0.442538 0.620181 0.768454
0.560762 0.623511 0.771785
0.640338 0.625753 0.774027
0.696362 0.627332 0.775605
0.737546 0.628492 0.776766
0.768940 0.629377 0.777650
0.793596 0.630071 0.778345
0.074739 0.673273 0.763585
0.270752 0.678796 0.769108
0.448191 0.683795 0.774107
0.566414 0.687126 0.777438
0.645991 0.689368 0.779680
0.702015 0.690946 0.781258
0.743198 0.692107 0.782418
0.774593 0.692991 0.783303
0.799249 0.693686 0.783998
0.078893 0.720014 0.767739
0.274906 0.725537 0.773261
0.452344 0.730536 0.778260
0.570568 0.733867 0.781591
0.650145 0.736109 0.783833
0.706168 0.737687 0.785412
0.747352 0.738848 0.786572
0.778746 0.739732 0.787456
0.803402 0.740427 0.788151
0.082053 0.755577 0.770899
0.278066 0.761099 0.776421
0.455504 0.766098 0.781420
0.573728 0.769429 0.784751
0.653305 0.771671 0.786993
0.709329 0.773250 0.788572
0.750512 0.774410 0.789732
0.781906 0.775294 0.790616
0.806562 0.775989 0.791311
0.084529 0.783436 0.773374
0.280542 0.788959 0.778897
0.457980 0.793958 0.783896
0.576204 0.797289 0.787227
0.655780 0.799531 0.789469
0.711804 0.801109 0.791047
0.752988 0.802270 0.792208
0.784382 0.803154 0.793092
0.809038 0.803849 0.793787
