cooper-animations/luts/day-one-v1.cube
TITLE "Day One - Traumauto Season 1"
LUT_3D_SIZE 5
DOMAIN_MIN 0.0 0.0 0.0
DOMAIN_MAX 1.0 1.0 1.0
0.009046 0.004384 0.000612
0.382497 0.014906 0.011134
0.580298 0.020479 0.016707
0.677505 0.023218 0.019446
0.733556 0.024797 0.021025
0.042470 0.380515 0.034036
0.415921 0.391036 0.044557
0.613721 0.396609 0.050130
0.710929 0.399348 0.052869
0.766979 0.400927 0.054448
0.062222 0.602794 0.053788
0.435673 0.613316 0.064309
0.633473 0.618888 0.069882
0.730681 0.621627 0.072621
0.786731 0.623206 0.074200
0.072028 0.713149 0.063594
0.445479 0.723671 0.074116
0.643280 0.729244 0.079688
0.740487 0.731983 0.082427
0.796537 0.733562 0.084006
0.077664 0.776571 0.069230
0.451115 0.787093 0.079751
0.648915 0.792666 0.085324
0.746123 0.795405 0.088063
0.802173 0.796984 0.089642
0.011867 0.007205 0.289882
0.385318 0.017726 0.300403
0.583118 0.023299 0.305976
0.680326 0.026038 0.308715
0.736376 0.027617 0.310294
0.045290 0.383335 0.323305
0.418741 0.393857 0.333827
0.616542 0.399429 0.339400
0.713749 0.402168 0.342138
0.769799 0.403747 0.343718
0.065042 0.605614 0.343057
0.438493 0.616136 0.353579
0.636294 0.621709 0.359152
0.733501 0.624447 0.361890
0.789551 0.626027 0.363469
0.074848 0.715970 0.352863
0.448299 0.726491 0.363385
0.646100 0.732064 0.368958
0.743307 0.734803 0.371697
0.799358 0.736382 0.373276
0.080484 0.779392 0.358499
0.453935 0.789913 0.369021
0.651736 0.795486 0.374594
0.748943 0.798225 0.377332
0.804993 0.799804 0.378911
0.014128 0.009466 0.521843
0.387579 0.019988 0.532365
0.585380 0.025561 0.537938
0.682587 0.028299 0.540677
0.738638 0.029879 0.542256
0.047551 0.385596 0.555267
0.421002 0.396118 0.565788
0.618803 0.401691 0.571361
0.716010 0.404430 0.574100
0.772061 0.406009 0.575679
0.067303 0.607876 0.575019
0.440754 0.618397 0.585540
0.638555 0.623970 0.591113
0.735762 0.626709 0.593852
0.791813 0.628288 0.595431
0.077110 0.718231 0.584825
0.450561 0.728753 0.595347
0.648361 0.734326 0.600919
0.745569 0.737064 0.603658
0.801619 0.738643 0.605237
0.082745 0.781653 0.590461
0.456196 0.792175 0.600982
0.653997 0.797748 0.606555
0.751204 0.800486 0.609294
0.807255 0.802066 0.610873
0.015267 0.010605 0.638621
0.388718 0.021126 0.649143
0.586518 0.026699 0.654716
0.683726 0.029438 0.657454
0.739776 0.031017 0.659034
0.048690 0.386735 0.672044
0.422141 0.397257 0.682566
0.619942 0.402829 0.688139
0.717149 0.405568 0.690878
0.773199 0.407147 0.692457
0.068442 0.609014 0.691796
0.441893 0.619536 0.702318
0.639694 0.625109 0.707891
0.736901 0.627847 0.710630
0.792951 0.629427 0.712209
0.078248 0.719370 0.701603
0.451699 0.729891 0.712124
0.649500 0.735464 0.717697
0.746707 0.738203 0.720436
0.802758 0.739782 0.722015
0.083884 0.782792 0.707238
0.457335 0.793313 0.717760
0.655136 0.798886 0.723333
0.752343 0.801625 0.726072
0.808393 0.803204 0.727651
0.015911 0.011249 0.704757
0.389362 0.021771 0.715279
0.587163 0.027344 0.720852
0.684370 0.030083 0.723590
0.740421 0.031662 0.725170
0.049335 0.387380 0.738180
0.422786 0.397901 0.748702
0.620586 0.403474 0.754275
0.717794 0.406213 0.757014
0.773844 0.407792 0.758593
0.069087 0.609659 0.757932
0.442538 0.620181 0.768454
0.640338 0.625753 0.774027
0.737546 0.628492 0.776766
0.793596 0.630071 0.778345
0.078893 0.720014 0.767739
0.452344 0.730536 0.778260
0.650145 0.736109 0.783833
0.747352 0.738848 0.786572
0.803402 0.740427 0.788151
0.084529 0.783436 0.773374
0.457980 0.793958 0.783896
0.655780 0.799531 0.789469
0.752988 0.802270 0.792208
0.809038 0.803849 0.793787
