cooper-animations/luts/day-one-v1.cube
TITLE "Day One - Traumauto Season 1"
LUT_3D_SIZE 33
DOMAIN_MIN 0.0 0.0 0.0
DOMAIN_MAX 1.0 1.0 1.0
0.009046 0.004384 0.000612
0.046306 0.005434 0.001662
0.096801 0.006857 0.003085
0.151334 0.008393 0.004621
0.205059 0.009907 0.006135
0.255645 0.011332 0.007560
0.302155 0.012643 0.008870
0.344385 0.013832 0.010060
0.382497 0.014906 0.011134
0.416813 0.015873 0.012101
0.447708 0.016743 0.012971
0.475560 0.017528 0.013756
0.500721 0.018237 0.014465
0.523511 0.018879 0.015107
0.544211 0.019462 0.015690
0.563068 0.019994 0.016221
0.580298 0.020479 0.016707
0.596087 0.020924 0.017152
0.610597 0.021333 0.017561
0.623968 0.021709 0.017937
0.636322 0.022057 0.018285
0.647766 0.022380 0.018608
0.658392 0.022679 0.018907
0.668281 0.022958 0.019186
0.677505 0.023218 0.019446
0.686127 0.023461 0.019689
0.694202 0.023688 0.019916
0.701778 0.023902 0.020129
0.708900 0.024102 0.020330
0.715606 0.024291 0.020519
0.721930 0.024469 0.020697
0.727904 0.024638 0.020866
0.733556 0.024797 0.021025
0.011740 0.034695 0.003306
0.049000 0.035745 0.004356
0.099494 0.037167 0.005778
0.154027 0.038704 0.007315
0.207753 0.040217 0.008828
0.258339 0.041643 0.010254
0.304848 0.042953 0.011564
0.347078 0.044143 0.012754
0.385191 0.045217 0.013827
0.419507 0.046183 0.014794
0.450402 0.047054 0.015665
0.478253 0.047839 0.016449
0.503415 0.048547 0.017158
0.526204 0.049190 0.017800
0.546904 0.049773 0.018384
0.565762 0.050304 0.018915
0.582992 0.050789 0.019400
0.598780 0.051234 0.019845
0.613290 0.051643 0.020254
0.626661 0.052020 0.020631
0.639015 0.052368 0.020979
0.650459 0.052690 0.021301
0.661085 0.052990 0.021601
0.670975 0.053268 0.021879
0.680199 0.053528 0.022139
0.688821 0.053771 0.022382
0.696895 0.053999 0.022609
0.704471 0.054212 0.022823
0.711593 0.054413 0.023024
0.718299 0.054602 0.023212
0.724624 0.054780 0.023391
0.730598 0.054948 0.023559
0.736249 0.055107 0.023718
0.015874 0.081216 0.007440
0.053134 0.082265 0.008489
0.103628 0.083688 0.009912
0.158161 0.085224 0.011449
0.211887 0.086738 0.012962
0.262472 0.088163 0.014387
0.308982 0.089474 0.015698
0.351212 0.090664 0.016888
0.389325 0.091737 0.017961
0.423640 0.092704 0.018928
0.454536 0.093575 0.019799
0.482387 0.094359 0.020583
0.507549 0.095068 0.021292
0.530338 0.095710 0.021934
0.551038 0.096293 0.022517
0.569896 0.096825 0.023049
0.587125 0.097310 0.023534
0.602914 0.097755 0.023979
0.617424 0.098164 0.024388
0.630795 0.098541 0.024765
0.643149 0.098889 0.025113
0.654593 0.099211 0.025435
0.665219 0.099510 0.025734
0.675108 0.099789 0.026013
0.684333 0.100049 0.026273
0.692954 0.100292 0.026516
0.701029 0.100519 0.026743
0.708605 0.100733 0.026957
0.715727 0.100933 0.027157
0.722433 0.101122 0.027346
0.728757 0.101301 0.027525
0.734732 0.101469 0.027693
0.740383 0.101628 0.027852
0.020628 0.134714 0.012194
0.057887 0.135764 0.013243
0.108382 0.137186 0.014666
0.162915 0.138723 0.016202
0.216640 0.140236 0.017716
0.267226 0.141662 0.019141
0.313736 0.142972 0.020452
0.355966 0.144162 0.021641
0.394079 0.145236 0.022715
0.428394 0.146202 0.023682
0.459290 0.147073 0.024552
0.487141 0.147857 0.025337
0.512303 0.148566 0.026046
0.535092 0.149208 0.026688
0.555792 0.149792 0.027271
0.574650 0.150323 0.027803
0.591879 0.150808 0.028288
0.607668 0.151253 0.028733
0.622178 0.151662 0.029142
0.635549 0.152039 0.029518
0.647903 0.152387 0.029867
0.659347 0.152709 0.030189
0.669973 0.153009 0.030488
0.679862 0.153287 0.030767
0.689087 0.153547 0.031027
0.697708 0.153790 0.031270
0.705783 0.154018 0.031497
0.713359 0.154231 0.031711
0.720481 0.154432 0.031911
0.727187 0.154621 0.032100
0.733511 0.154799 0.032278
0.739485 0.154967 0.032447
0.745137 0.155126 0.032606
0.025504 0.189591 0.017070
0.062764 0.190641 0.018120
0.113258 0.192064 0.019542
0.167792 0.193600 0.021079
0.221517 0.195114 0.022593
0.272103 0.196539 0.024018
0.318612 0.197849 0.025328
0.360843 0.199039 0.026518
0.398955 0.200113 0.027592
0.433271 0.201080 0.028559
0.464166 0.201950 0.029429
0.492018 0.202735 0.030214
0.517179 0.203444 0.030923
0.539969 0.204086 0.031565
0.560669 0.204669 0.032148
0.579526 0.205200 0.032679
0.596756 0.205686 0.033165
0.612545 0.206131 0.033609
0.627054 0.206540 0.034018
0.640425 0.206916 0.034395
0.652780 0.207264 0.034743
0.664223 0.207587 0.035065
0.674849 0.207886 0.035365
0.684739 0.208165 0.035643
0.693963 0.208425 0.035903
0.702585 0.208668 0.036146
0.710659 0.208895 0.036374
0.718236 0.209108 0.036587
0.725357 0.209309 0.036788
0.732063 0.209498 0.036977
0.738388 0.209676 0.037155
0.744362 0.209845 0.037323
0.750013 0.210004 0.037482
0.030227 0.242737 0.021793
0.067486 0.243787 0.022842
0.117981 0.245209 0.024265
0.172514 0.246746 0.025801
0.226239 0.248259 0.027315
0.276825 0.249685 0.028740
0.323335 0.250995 0.030051
0.365565 0.252185 0.031240
0.403678 0.253259 0.032314
0.437993 0.254225 0.033281
0.468889 0.255096 0.034152
0.496740 0.255881 0.034936
0.521902 0.256589 0.035645
0.544691 0.257231 0.036287
0.565391 0.257815 0.036870
0.584249 0.258346 0.037402
0.601478 0.258831 0.037887
0.617267 0.259276 0.038332
0.631777 0.259685 0.038741
0.645148 0.260062 0.039117
0.657502 0.260410 0.039466
0.668946 0.260732 0.039788
0.679572 0.261032 0.040087
0.689461 0.261310 0.040366
0.698686 0.261570 0.040626
0.707307 0.261813 0.040869
0.715382 0.262041 0.041096
0.722958 0.262254 0.041310
0.730080 0.262455 0.041510
0.736786 0.262644 0.041699
0.743110 0.262822 0.041877
0.749085 0.262990 0.042046
0.754736 0.263149 0.042205
0.034658 0.292604 0.026224
0.071918 0.293654 0.027274
0.122412 0.295076 0.028696
0.176945 0.296613 0.030233
0.230671 0.298126 0.031746
0.281257 0.299551 0.033172
0.327766 0.300862 0.034482
0.369997 0.302052 0.035672
0.408109 0.303125 0.036745
0.442425 0.304092 0.037712
0.473320 0.304963 0.038583
0.501172 0.305747 0.039367
0.526333 0.306456 0.040076
0.549122 0.307098 0.040718
0.569822 0.307682 0.041302
0.588680 0.308213 0.041833
0.605910 0.308698 0.042318
0.621698 0.309143 0.042763
0.636208 0.309552 0.043172
0.649579 0.309929 0.043549
0.661933 0.310277 0.043897
0.673377 0.310599 0.044219
0.684003 0.310898 0.044519
0.693893 0.311177 0.044797
0.703117 0.311437 0.045057
0.711739 0.311680 0.045300
0.719813 0.311907 0.045527
0.727389 0.312121 0.045741
0.734511 0.312322 0.045942
0.741217 0.312510 0.046130
0.747542 0.312689 0.046309
0.753516 0.312857 0.046477
0.759167 0.313016 0.046636
0.038742 0.338567 0.030308
0.076002 0.339617 0.031358
0.126497 0.341039 0.032781
0.181030 0.342576 0.034317
0.234755 0.344089 0.035831
0.285341 0.345515 0.037256
0.331850 0.346825 0.038566
0.374081 0.348015 0.039756
0.412193 0.349089 0.040830
0.446509 0.350055 0.041797
0.477404 0.350926 0.042667
0.505256 0.351711 0.043452
0.530417 0.352419 0.044161
0.553207 0.353062 0.044803
0.573907 0.353645 0.045386
0.592764 0.354176 0.045917
0.609994 0.354661 0.046403
0.625783 0.355106 0.046848
0.640293 0.355515 0.047256
0.653663 0.355892 0.047633
0.666018 0.356240 0.047981
0.677461 0.356562 0.048304
0.688087 0.356862 0.048603
0.697977 0.357140 0.048882
0.707201 0.357400 0.049141
0.715823 0.357643 0.049384
0.723897 0.357871 0.049612
0.731474 0.358084 0.049825
0.738596 0.358285 0.050026
0.745301 0.358474 0.050215
0.751626 0.358652 0.050393
0.757600 0.358820 0.050561
0.763252 0.358979 0.050721
0.042470 0.380515 0.034036
0.079730 0.381564 0.035085
0.130224 0.382987 0.036508
0.184757 0.384523 0.038044
0.238483 0.386037 0.039558
0.289068 0.387462 0.040983
0.335578 0.388773 0.042294
0.377808 0.389963 0.043484
0.415921 0.391036 0.044557
0.450236 0.392003 0.045524
0.481132 0.392874 0.046395
0.508983 0.393658 0.047179
0.534145 0.394367 0.047888
0.556934 0.395009 0.048530
0.577634 0.395592 0.049113
0.596492 0.396124 0.049645
0.613721 0.396609 0.050130
0.629510 0.397054 0.050575
0.644020 0.397463 0.050984
0.657391 0.397840 0.051361
0.669745 0.398188 0.051709
0.681189 0.398510 0.052031
0.691815 0.398809 0.052330
0.701704 0.399088 0.052609
0.710929 0.399348 0.052869
0.719550 0.399591 0.053112
0.727625 0.399818 0.053339
0.735201 0.400032 0.053553
0.742323 0.400232 0.053753
0.749029 0.400421 0.053942
0.755353 0.400600 0.054121
0.761328 0.400768 0.054289
0.766979 0.400927 0.054448
0.045854 0.418603 0.037420
0.083114 0.419652 0.038470
0.133609 0.421075 0.039893
0.188142 0.422611 0.041429
0.241867 0.424125 0.042943
0.292453 0.425550 0.044368
0.338962 0.426861 0.045678
0.381193 0.428050 0.046868
0.419305 0.429124 0.047942
0.453621 0.430091 0.048909
0.484516 0.430961 0.049779
0.512368 0.431746 0.050564
0.537529 0.432455 0.051273
0.560319 0.433097 0.051915
0.581019 0.433680 0.052498
0.599876 0.434212 0.053029
0.617106 0.434697 0.053515
0.632895 0.435142 0.053960
0.647405 0.435551 0.054368
0.660776 0.435927 0.054745
0.673130 0.436276 0.055093
0.684573 0.436598 0.055416
0.695199 0.436897 0.055715
0.705089 0.437176 0.055994
0.714313 0.437436 0.056253
0.722935 0.437679 0.056496
0.731009 0.437906 0.056724
0.738586 0.438120 0.056937
0.745708 0.438320 0.057138
0.752413 0.438509 0.057327
0.758738 0.438687 0.057505
0.764712 0.438856 0.057673
0.770364 0.439015 0.057833
0.048921 0.453112 0.040487
0.086181 0.454162 0.041537
0.136675 0.455585 0.042959
0.191208 0.457121 0.044496
0.244934 0.458635 0.046009
0.295519 0.460060 0.047434
0.342029 0.461370 0.048745
0.384259 0.462560 0.049935
0.422372 0.463634 0.051008
0.456687 0.464601 0.051975
0.487583 0.465471 0.052846
0.515434 0.466256 0.053630
0.540596 0.466965 0.054339
0.563385 0.467607 0.054981
0.584085 0.468190 0.055565
0.602943 0.468721 0.056096
0.620173 0.469207 0.056581
0.635961 0.469652 0.057026
0.650471 0.470060 0.057435
0.663842 0.470437 0.057812
0.676196 0.470785 0.058160
0.687640 0.471108 0.058482
0.698266 0.471407 0.058781
0.708156 0.471686 0.059060
0.717380 0.471945 0.059320
0.726001 0.472188 0.059563
0.734076 0.472416 0.059790
0.741652 0.472629 0.060004
0.748774 0.472830 0.060204
0.755480 0.473019 0.060393
0.761805 0.473197 0.060572
0.767779 0.473365 0.060740
0.773430 0.473525 0.060899
0.051698 0.484372 0.043264
0.088958 0.485421 0.044314
0.139453 0.486844 0.045737
0.193986 0.488380 0.047273
0.247711 0.489894 0.048787
0.298297 0.491319 0.050212
0.344807 0.492630 0.051523
0.387037 0.493819 0.052712
0.425150 0.494893 0.053786
0.459465 0.495860 0.054753
0.490360 0.496730 0.055623
0.518212 0.497515 0.056408
0.543373 0.498224 0.057117
0.566163 0.498866 0.057759
0.586863 0.499449 0.058342
0.605720 0.499981 0.058874
0.622950 0.500466 0.059359
0.638739 0.500911 0.059804
0.653249 0.501320 0.060213
0.666620 0.501696 0.060589
0.678974 0.502044 0.060937
0.690418 0.502367 0.061260
0.701044 0.502666 0.061559
0.710933 0.502945 0.061838
0.720157 0.503205 0.062098
0.728779 0.503448 0.062341
0.736854 0.503675 0.062568
0.744430 0.503889 0.062782
0.751552 0.504089 0.062982
0.758258 0.504278 0.063171
0.764582 0.504456 0.063349
0.770556 0.504625 0.063518
0.776208 0.504784 0.063677
0.054217 0.512713 0.045783
0.091477 0.513763 0.046833
0.141971 0.515186 0.048255
0.196505 0.516722 0.049792
0.250230 0.518236 0.051305
0.300816 0.519661 0.052731
0.347325 0.520971 0.054041
0.389556 0.522161 0.055231
0.427668 0.523235 0.056305
0.461984 0.524202 0.057271
0.492879 0.525072 0.058142
0.520731 0.525857 0.058927
0.545892 0.526566 0.059635
0.568681 0.527208 0.060278
0.589381 0.527791 0.060861
0.608239 0.528322 0.061392
0.625469 0.528808 0.061877
0.641258 0.529253 0.062322
0.655767 0.529661 0.062731
0.669138 0.530038 0.063108
0.681492 0.530386 0.063456
0.692936 0.530709 0.063778
0.703562 0.531008 0.064078
0.713452 0.531287 0.064356
0.722676 0.531546 0.064616
0.731298 0.531789 0.064859
0.739372 0.532017 0.065087
0.746949 0.532230 0.065300
0.754070 0.532431 0.065501
0.760776 0.532620 0.065690
0.767101 0.532798 0.065868
0.773075 0.532966 0.066036
0.778726 0.533126 0.066195
0.056504 0.538452 0.048070
0.093764 0.539502 0.049120
0.144259 0.540925 0.050543
0.198792 0.542461 0.052079
0.252517 0.543975 0.053593
0.303103 0.545400 0.055018
0.349612 0.546710 0.056328
0.391843 0.547900 0.057518
0.429955 0.548974 0.058592
0.464271 0.549941 0.059559
0.495166 0.550811 0.060429
0.523018 0.551596 0.061214
0.548179 0.552305 0.061923
0.570969 0.552947 0.062565
0.591669 0.553530 0.063148
0.610526 0.554061 0.063679
0.627756 0.554547 0.064165
0.643545 0.554992 0.064609
0.658055 0.555400 0.065018
0.671425 0.555777 0.065395
0.683780 0.556125 0.065743
0.695223 0.556448 0.066065
0.705849 0.556747 0.066365
0.715739 0.557026 0.066644
0.724963 0.557286 0.066903
0.733585 0.557528 0.067146
0.741659 0.557756 0.067374
0.749236 0.557969 0.067587
0.756358 0.558170 0.067788
0.763063 0.558359 0.067977
0.769388 0.558537 0.068155
0.775362 0.558706 0.068323
0.781014 0.558865 0.068483
0.058586 0.561878 0.050152
0.095846 0.562928 0.051202
0.146340 0.564350 0.052624
0.200873 0.565887 0.054161
0.254599 0.567400 0.055674
0.305184 0.568825 0.057099
0.351694 0.570136 0.058410
0.393924 0.571326 0.059600
0.432037 0.572399 0.060673
0.466352 0.573366 0.061640
0.497248 0.574237 0.062511
0.525099 0.575021 0.063295
0.550261 0.575730 0.064004
0.573050 0.576372 0.064646
0.593750 0.576956 0.065230
0.612608 0.577487 0.065761
0.629838 0.577972 0.066246
0.645626 0.578417 0.066691
0.660136 0.578826 0.067100
0.673507 0.579203 0.067477
0.685861 0.579551 0.067825
0.697305 0.579873 0.068147
0.707931 0.580172 0.068446
0.717821 0.580451 0.068725
0.727045 0.580711 0.068985
0.735666 0.580954 0.069228
0.743741 0.581181 0.069455
0.751317 0.581395 0.069669
0.758439 0.581595 0.069870
0.765145 0.581784 0.070058
0.771470 0.581963 0.070237
0.777444 0.582131 0.070405
0.783095 0.582290 0.070564
0.060485 0.583248 0.052051
0.097745 0.584298 0.053101
0.148239 0.585721 0.054523
0.202772 0.587257 0.056060
0.256498 0.588771 0.057573
0.307083 0.590196 0.058998
0.353593 0.591506 0.060309
0.395823 0.592696 0.061499
0.433936 0.593770 0.062572
0.468252 0.594737 0.063539
0.499147 0.595607 0.064410
0.526998 0.596392 0.065194
0.552160 0.597101 0.065903
0.574949 0.597743 0.066545
0.595649 0.598326 0.067129
0.614507 0.598857 0.067660
0.631737 0.599343 0.068145
0.647525 0.599788 0.068590
0.662035 0.600197 0.068999
0.675406 0.600573 0.069376
0.687760 0.600921 0.069724
0.699204 0.601244 0.070046
0.709830 0.601543 0.070345
0.719720 0.601822 0.070624
0.728944 0.602082 0.070884
0.737565 0.602325 0.071127
0.745640 0.602552 0.071354
0.753216 0.602766 0.071568
0.760338 0.602966 0.071769
0.767044 0.603155 0.071957
0.773369 0.603333 0.072136
0.779343 0.603502 0.072304
0.784994 0.603661 0.072463
0.062222 0.602794 0.053788
0.099481 0.603844 0.054837
0.149976 0.605266 0.056260
0.204509 0.606803 0.057796
0.258234 0.608316 0.059310
0.308820 0.609742 0.060735
0.355330 0.611052 0.062046
0.397560 0.612242 0.063235
0.435673 0.613316 0.064309
0.469988 0.614282 0.065276
0.500884 0.615153 0.066147
0.528735 0.615937 0.066931
0.553897 0.616646 0.067640
0.576686 0.617288 0.068282
0.597386 0.617872 0.068865
0.616244 0.618403 0.069397
0.633473 0.618888 0.069882
0.649262 0.619333 0.070327
0.663772 0.619742 0.070736
0.677143 0.620119 0.071112
0.689497 0.620467 0.071461
0.700941 0.620789 0.071783
0.711567 0.621089 0.072082
0.721456 0.621367 0.072361
0.730681 0.621627 0.072621
0.739302 0.621870 0.072864
0.747377 0.622098 0.073091
0.754953 0.622311 0.073305
0.762075 0.622512 0.073505
0.768781 0.622701 0.073694
0.775105 0.622879 0.073872
0.781079 0.623047 0.074041
0.786731 0.623206 0.074200
0.063814 0.620716 0.055380
0.101074 0.621766 0.056430
0.151569 0.623189 0.057853
0.206102 0.624725 0.059389
0.259827 0.626239 0.060903
0.310413 0.627664 0.062328
0.356922 0.628974 0.063638
0.399153 0.630164 0.064828
0.437265 0.631238 0.065902
0.471581 0.632205 0.066869
0.502476 0.633075 0.067739
0.530328 0.633860 0.068524
0.555489 0.634569 0.069233
0.578279 0.635211 0.069875
0.598979 0.635794 0.070458
0.617836 0.636325 0.070989
0.635066 0.636811 0.071475
0.650855 0.637256 0.071920
0.665365 0.637664 0.072328
0.678736 0.638041 0.072705
0.691090 0.638389 0.073053
0.702533 0.638712 0.073376
0.713159 0.639011 0.073675
0.723049 0.639290 0.073954
0.732273 0.639549 0.074213
0.740895 0.639792 0.074456
0.748969 0.640020 0.074684
0.756546 0.640233 0.074897
0.763668 0.640434 0.075098
0.770373 0.640623 0.075287
0.776698 0.640801 0.075465
0.782672 0.640969 0.075633
0.788324 0.641129 0.075793
0.065278 0.637193 0.056844
0.102538 0.638242 0.057894
0.153033 0.639665 0.059317
0.207566 0.641201 0.060853
0.261291 0.642715 0.062367
0.311877 0.644140 0.063792
0.358386 0.645451 0.065102
0.400617 0.646640 0.066292
0.438729 0.647714 0.067366
0.473045 0.648681 0.068333
0.503940 0.649551 0.069203
0.531792 0.650336 0.069988
0.556953 0.651045 0.070697
0.579743 0.651687 0.071339
0.600443 0.652270 0.071922
0.619300 0.652802 0.072453
0.636530 0.653287 0.072939
0.652319 0.653732 0.073384
0.666829 0.654141 0.073792
0.680200 0.654517 0.074169
0.692554 0.654865 0.074517
0.703998 0.655188 0.074840
0.714624 0.655487 0.075139
0.724513 0.655766 0.075418
0.733737 0.656026 0.075678
0.742359 0.656269 0.075920
0.750434 0.656496 0.076148
0.758010 0.656710 0.076361
0.765132 0.656910 0.076562
0.771838 0.657099 0.076751
0.778162 0.657277 0.076929
0.784136 0.657446 0.077097
0.789788 0.657605 0.077257
0.066628 0.652378 0.058194
0.103888 0.653428 0.059243
0.154382 0.654850 0.060666
0.208915 0.656387 0.062203
0.262641 0.657900 0.063716
0.313226 0.659326 0.065141
0.359736 0.660636 0.066452
0.401966 0.661826 0.067642
0.440079 0.662900 0.068715
0.474394 0.663866 0.069682
0.505290 0.664737 0.070553
0.533141 0.665522 0.071337
0.558303 0.666230 0.072046
0.581092 0.666873 0.072688
0.601792 0.667456 0.073271
0.620650 0.667987 0.073803
0.637879 0.668472 0.074288
0.653668 0.668917 0.074733
0.668178 0.669326 0.075142
0.681549 0.669703 0.075519
0.693903 0.670051 0.075867
0.705347 0.670373 0.076189
0.715973 0.670673 0.076488
0.725862 0.670951 0.076767
0.735087 0.671211 0.077027
0.743708 0.671454 0.077270
0.751783 0.671682 0.077497
0.759359 0.671895 0.077711
0.766481 0.672096 0.077911
0.773187 0.672285 0.078100
0.779511 0.672463 0.078279
0.785486 0.672631 0.078447
0.791137 0.672790 0.078606
0.067874 0.666408 0.059440
0.105134 0.667458 0.060490
0.155629 0.668881 0.061913
0.210162 0.670417 0.063449
0.263887 0.671931 0.064963
0.314473 0.673356 0.066388
0.360983 0.674666 0.067698
0.403213 0.675856 0.068888
0.441325 0.676930 0.069962
0.475641 0.677897 0.070929
0.506536 0.678767 0.071799
0.534388 0.679552 0.072584
0.559549 0.680261 0.073293
0.582339 0.680903 0.073935
0.603039 0.681486 0.074518
0.621896 0.682017 0.075050
0.639126 0.682503 0.075535
0.654915 0.682948 0.075980
0.669425 0.683356 0.076389
0.682796 0.683733 0.076765
0.695150 0.684081 0.077113
0.706594 0.684404 0.077436
0.717220 0.684703 0.077735
0.727109 0.684982 0.078014
0.736333 0.685242 0.078274
0.744955 0.685484 0.078517
0.753030 0.685712 0.078744
0.760606 0.685925 0.078958
0.767728 0.686126 0.079158
0.774434 0.686315 0.079347
0.780758 0.686493 0.079525
0.786732 0.686662 0.079694
0.792384 0.686821 0.079853
0.069029 0.679402 0.060595
0.106289 0.680452 0.061645
0.156784 0.681875 0.063068
0.211317 0.683411 0.064604
0.265042 0.684925 0.066118
0.315628 0.686350 0.067543
0.362137 0.687661 0.068853
0.404368 0.688850 0.070043
0.442480 0.689924 0.071117
0.476796 0.690891 0.072084
0.507691 0.691761 0.072954
0.535543 0.692546 0.073739
0.560704 0.693255 0.074448
0.583494 0.693897 0.075090
0.604194 0.694480 0.075673
0.623051 0.695012 0.076204
0.640281 0.695497 0.076690
0.656070 0.695942 0.077134
0.670579 0.696351 0.077543
0.683950 0.696727 0.077920
0.696305 0.697075 0.078268
0.707748 0.697398 0.078590
0.718374 0.697697 0.078890
0.728264 0.697976 0.079168
0.737488 0.698236 0.079428
0.746110 0.698479 0.079671
0.754184 0.698706 0.079899
0.761761 0.698920 0.080112
0.768882 0.699120 0.080313
0.775588 0.699309 0.080502
0.781913 0.699487 0.080680
0.787887 0.699656 0.080848
0.793539 0.699815 0.081008
0.070101 0.691465 0.061667
0.107361 0.692515 0.062717
0.157855 0.693937 0.064139
0.212389 0.695474 0.065676
0.266114 0.696987 0.067189
0.316700 0.698412 0.068615
0.363209 0.699723 0.069925
0.405440 0.700913 0.071115
0.443552 0.701986 0.072189
0.477868 0.702953 0.073155
0.508763 0.703824 0.074026
0.536615 0.704608 0.074811
0.561776 0.705317 0.075519
0.584566 0.705959 0.076162
0.605265 0.706543 0.076745
0.624123 0.707074 0.077276
0.641353 0.707559 0.077761
0.657142 0.708004 0.078206
0.671651 0.708413 0.078615
0.685022 0.708790 0.078992
0.697377 0.709138 0.079340
0.708820 0.709460 0.079662
0.719446 0.709760 0.079962
0.729336 0.710038 0.080240
0.738560 0.710298 0.080500
0.747182 0.710541 0.080743
0.755256 0.710768 0.080971
0.762833 0.710982 0.081184
0.769954 0.711183 0.081385
0.776660 0.711371 0.081574
0.782985 0.711550 0.081752
0.788959 0.711718 0.081920
0.794610 0.711877 0.082079
0.071098 0.702687 0.062664
0.108358 0.703737 0.063714
0.158853 0.705159 0.065137
0.213386 0.706696 0.066673
0.267111 0.708209 0.068187
0.317697 0.709635 0.069612
0.364206 0.710945 0.070922
0.406437 0.712135 0.072112
0.444549 0.713208 0.073186
0.478865 0.714175 0.074153
0.509760 0.715046 0.075023
0.537612 0.715830 0.075808
0.562773 0.716539 0.076517
0.585563 0.717181 0.077159
0.606263 0.717765 0.077742
0.625120 0.718296 0.078273
0.642350 0.718781 0.078759
0.658139 0.719226 0.079204
0.672649 0.719635 0.079612
0.686019 0.720012 0.079989
0.698374 0.720360 0.080337
0.709817 0.720682 0.080660
0.720443 0.720982 0.080959
0.730333 0.721260 0.081238
0.739557 0.721520 0.081497
0.748179 0.721763 0.081740
0.756253 0.721990 0.081968
0.763830 0.722204 0.082181
0.770952 0.722405 0.082382
0.777657 0.722594 0.082571
0.783982 0.722772 0.082749
0.789956 0.722940 0.082917
0.795608 0.723099 0.083077
0.072028 0.713149 0.063594
0.109288 0.714199 0.064644
0.159782 0.715622 0.066066
0.214315 0.717158 0.067603
0.268041 0.718672 0.069116
0.318627 0.720097 0.070542
0.365136 0.721407 0.071852
0.407367 0.722597 0.073042
0.445479 0.723671 0.074116
0.479795 0.724638 0.075082
0.510690 0.725508 0.075953
0.538542 0.726293 0.076737
0.563703 0.727002 0.077446
0.586492 0.727644 0.078088
0.607192 0.728227 0.078672
0.626050 0.728758 0.079203
0.643280 0.729244 0.079688
0.659069 0.729689 0.080133
0.673578 0.730097 0.080542
0.686949 0.730474 0.080919
0.699303 0.730822 0.081267
0.710747 0.731145 0.081589
0.721373 0.731444 0.081889
0.731263 0.731723 0.082167
0.740487 0.731983 0.082427
0.749109 0.732225 0.082670
0.757183 0.732453 0.082898
0.764760 0.732666 0.083111
0.771881 0.732867 0.083312
0.778587 0.733056 0.083501
0.784912 0.733234 0.083679
0.790886 0.733403 0.083847
0.796537 0.733562 0.084006
0.072896 0.722924 0.064462
0.110156 0.723973 0.065512
0.160651 0.725396 0.066935
0.215184 0.726932 0.068471
0.268909 0.728446 0.069985
0.319495 0.729871 0.071410
0.366005 0.731182 0.072720
0.408235 0.732371 0.073910
0.446347 0.733445 0.074984
0.480663 0.734412 0.075951
0.511558 0.735282 0.076821
0.539410 0.736067 0.077606
0.564571 0.736776 0.078315
0.587361 0.737418 0.078957
0.608061 0.738001 0.079540
0.626918 0.738533 0.080072
0.644148 0.739018 0.080557
0.659937 0.739463 0.081002
0.674447 0.739872 0.081411
0.687818 0.740248 0.081787
0.700172 0.740596 0.082135
0.711616 0.740919 0.082458
0.722242 0.741218 0.082757
0.732131 0.741497 0.083036
0.741355 0.741757 0.083296
0.749977 0.742000 0.083539
0.758052 0.742227 0.083766
0.765628 0.742441 0.083980
0.772750 0.742641 0.084180
0.779456 0.742830 0.084369
0.785780 0.743008 0.084547
0.791754 0.743177 0.084716
0.797406 0.743336 0.084875
0.073709 0.732072 0.065275
0.110969 0.733122 0.066325
0.161464 0.734545 0.067748
0.215997 0.736081 0.069284
0.269722 0.737595 0.070798
0.320308 0.739020 0.072223
0.366818 0.740331 0.073533
0.409048 0.741520 0.074723
0.447160 0.742594 0.075797
0.481476 0.743561 0.076764
0.512371 0.744431 0.077634
0.540223 0.745216 0.078419
0.565384 0.745925 0.079128
0.588174 0.746567 0.079770
0.608874 0.747150 0.080353
0.627731 0.747682 0.080884
0.644961 0.748167 0.081370
0.660750 0.748612 0.081815
0.675260 0.749021 0.082224
0.688631 0.749397 0.082600
0.700985 0.749745 0.082948
0.712429 0.750068 0.083271
0.723055 0.750367 0.083570
0.732944 0.750646 0.083849
0.742168 0.750906 0.084109
0.750790 0.751149 0.084352
0.758865 0.751376 0.084579
